X: 36199
T: Scottish Urbaine
R: barndance
M: 4/4
K: Dmixolydian
|:Addc d2de|fdfg a2fa|gfed c2c/^c/d|eged c2A2|
Addc d2de|fdfg a2f/g/a|gfed c2c/^c/d|1 egec d2cd:|2 egec d2d2||
|:f2dg2e a2-|aba^g a2f/g/a|gfed c2c/^c/d|eged c2A2|
f2dg2e a2-|aba^g a2f/g/a|gfed c2c/^c/d|egec d4:|

